X: 10
T:Max
R:march
B:RSCDS 18-19(I) (in F)
Z: 1997 by John Chambers <jc@eddie.mit.edu> http://eddie.mit.edu/~jc/music
Z:bc/
M:4/4
L:1/8
K:G
|: ef \
| g2G2 B2G2 | F2A2 A2ef | g2G2 B2d2 | g4- g2ef \
| g2G2 B2G2 | F2A2 A2GF | E2G2 F2A2 | G4- G2 :|
|: d2 \
| g3a b2g2 | agfe d2d2 | g3a g2b2 | a4- a2d2 \
| g3a b2g2 | agfe d2ga | b2g2 a2f2 | g4- g2:|
